X:274
T: MIR GEFAELLT DAS EHSTANDSLEBEN BESSER
N: E0868B
O: Europa, Mitteleuropa, Deutschland, Hessen, Ober - Lahnkreis
R: Hochzeits -, Ehestands - Lied +++ Zeilenenden rhythm. vereinheitlicht+++
M: 2/4
L: 1/16
K: G
 | G4D4 | E2F2G2B2 | A2cBA4 | G4A4 |
B2d2c2A2 | B2G2c4 | d3cB4- | B4z4 |
B4B4 | B4d4 | c3BA4 | G4A4- | A4z4 |
B4A4 | B2d2c2A2 | B2G2c4 | d3cB4- | B4z4 |
B4B4 | B4d4 | c3BA4 | G4A4- | A4z4 |
B4A4 | B2d2c2A2 | B2G2c4 | d3cB4- | B8

@@@ Tune index: 4587
